!!!COM: Daser, Ludwig
!!!CDT: ~1526-1589/03/27
!!!OPR: Missa Preter rerum
!!!ONM: 1
!!!OTL: Kyrie
!!!AGN: Mass; Kyrie
!!!SCT: Das1002a
!!!SCA: Das1002a
!!!voices-OPR: 6
!!!voices: 6
**kern	**text	**kern	**text	**kern	**text	**kern	**text	**kern	**text	**kern	**text
*staff6	*staff6	*staff5	*staff5	*staff4	*staff4	*staff3	*staff3	*staff2	*staff2	*staff1	*staff1
*Ivox	*	*Ivox	*	*Ivox	*	*Ivox	*	*Ivox	*	*Ivox	*
*I"Bassus2	*	*I"Bassus1	*	*I"Tenor2	*	*I"Tenor1	*	*I"Contratenor	*	*I"Discantus	*
*I'B2	*	*I'B1	*	*I'T2	*	*I'T1	*	*I'Ct	*	*I'D	*
*>[A,B,C]	*>[A,B,C]	*>[A,B,C]	*>[A,B,C]	*>[A,B,C]	*>[A,B,C]	*>[A,B,C]	*>[A,B,C]	*>[A,B,C]	*>[A,B,C]	*>[A,B,C]	*>[A,B,C]
*>A	*>A	*>A	*>A	*>A	*>A	*>A	*>A	*>A	*>A	*>A	*>A
*clefF4	*	*clefF4	*	*clefGv2	*	*clefGv2	*	*clefGv2	*	*clefG2	*
*k[b-]	*	*k[b-]	*	*k[b-]	*	*k[b-]	*	*k[b-]	*	*k[b-]	*
*M2/1	*	*M2/1	*	*M2/1	*	*M2/1	*	*M2/1	*	*M2/1	*
*met(C|)	*	*met(C|)	*	*met(C|)	*	*met(C|)	*	*met(C|)	*	*met(C|)	*
!!section: Kyrie I
!!!OMD: Kyrie I
=1-	=1-	=1-	=1-	=1-	=1-	=1-	=1-	=1-	=1-	=1-	=1-
0r	.	0r	.	0r	.	0r	.	1.G	Ky-	[0g	Pre-
.	.	.	.	.	.	.	.	2A	.	.	.
=2	=2	=2	=2	=2	=2	=2	=2	=2	=2	=2	=2
0r	.	0r	.	0r	.	0r	.	1B-	.	0g]	.
.	.	.	.	.	.	.	.	1c	.	.	.
=3	=3	=3	=3	=3	=3	=3	=3	=3	=3	=3	=3
0r	.	0r	.	1.G	Ky-	0r	.	2B-	-ri-	0g	-ter
.	.	.	.	.	.	.	.	2G	-e	.	.
.	.	.	.	.	.	.	.	2B-	e-	.	.
.	.	.	.	2A	.	.	.	2c	.	.	.
=4	=4	=4	=4	=4	=4	=4	=4	=4	=4	=4	=4
0r	.	0r	.	1B-	.	0r	.	1d	.	0g	re-
.	.	.	.	1c	.	.	.	1e-i	.	.	.
=5	=5	=5	=5	=5	=5	=5	=5	=5	=5	=5	=5
0r	.	0r	.	2B-	-ri-	0r	.	1.d	-lei-	0g	-rum
.	.	.	.	2G	-e	.	.	.	.	.	.
.	.	.	.	2B-	e-	.	.	.	.	.	.
.	.	.	.	2c	.	.	.	2c	.	.	.
=6	=6	=6	=6	=6	=6	=6	=6	=6	=6	=6	=6
0r	.	0r	.	1d	.	0r	.	2B-	.	0g	se-
.	.	.	.	.	.	.	.	2A	.	.	.
.	.	.	.	1e-i	.	.	.	2G	-son,	.	.
.	.	.	.	.	.	.	.	[2g	Ky-	.	.
=7	=7	=7	=7	=7	=7	=7	=7	=7	=7	=7	=7
0r	.	0r	.	1d	-lei-	0r	.	2g]	.	0a	-ri-
.	.	.	.	.	.	.	.	2f	-ri-	.	.
.	.	.	.	2c	-son,	.	.	2e	-e	.	.
.	.	.	.	[2d	e-	.	.	[2f	e-	.	.
=8	=8	=8	=8	=8	=8	=8	=8	=8	=8	=8	=8
0r	.	0r	.	2d]	.	0r	.	2f]	.	[0f	-em
.	.	.	.	4c	.	.	.	4e	.	.	.
.	.	.	.	4B-	.	.	.	4d	.	.	.
.	.	.	.	2A	.	.	.	2c	.	.	.
.	.	.	.	[2B-	.	.	.	[2d	.	.	.
=9	=9	=9	=9	=9	=9	=9	=9	=9	=9	=9	=9
0r	.	0r	.	2B-]	.	0r	.	2d]	.	0f]	.
.	.	.	.	4A	.	.	.	4c	.	.	.
.	.	.	.	4G	.	.	.	4B-	.	.	.
.	.	.	.	1A	-lei-	.	.	1c	-lei-	.	.
=10	=10	=10	=10	=10	=10	=10	=10	=10	=10	=10	=10
0r	.	1.GG	Ky-	2G	-son,	[0G	Pre-	0d	-son,	0r	.
.	.	.	.	1B-	Ky-	.	.	.	.	.	.
.	.	2AA	-ri-	2c	-ri-	.	.	.	.	.	.
=11	=11	=11	=11	=11	=11	=11	=11	=11	=11	=11	=11
0r	.	1BB-	.	1d	-e	0G]	.	0r	.	0r	.
.	.	1C	.	1e-i	.	.	.	.	.	.	.
=12	=12	=12	=12	=12	=12	=12	=12	=12	=12	=12	=12
1.GG	Ky-	2BB-	.	1.d	e-	0G	-ter	0r	.	0r	.
.	.	2GG	-e	.	.	.	.	.	.	.	.
.	.	2BB-	e-	.	.	.	.	.	.	.	.
2AA	.	2C	.	2c	-lei-	.	.	.	.	.	.
=13	=13	=13	=13	=13	=13	=13	=13	=13	=13	=13	=13
1BB-	.	1D	-lei-	4B-	.	0G	re-	0r	.	0r	.
.	.	.	.	4A	.	.	.	.	.	.	.
.	.	.	.	1d	.	.	.	.	.	.	.
1C	.	1E-i	.	.	.	.	.	.	.	.	.
.	.	.	.	2c	.	.	.	.	.	.	.
=14	=14	=14	=14	=14	=14	=14	=14	=14	=14	=14	=14
2BB-	-ri-	1.D	.	1d	.	0G	-rum	0r	.	0r	.
2GG	-e	.	.	.	.	.	.	.	.	.	.
2BB-	e-	.	.	1r	.	.	.	.	.	.	.
2C	.	2C	.	.	.	.	.	.	.	.	.
=15	=15	=15	=15	=15	=15	=15	=15	=15	=15	=15	=15
1D	-lei-	2BB-	.	0r	.	0G	se-	0r	.	0r	.
.	.	2AA	.	.	.	.	.	.	.	.	.
1E-i	.	2GG	-son,	.	.	.	.	.	.	.	.
.	.	[2G	Ky-	.	.	.	.	.	.	.	.
=16	=16	=16	=16	=16	=16	=16	=16	=16	=16	=16	=16
1D	-son,	2G]	.	0r	.	0A	-ri-	0r	.	1r	.
.	.	2F	.	.	.	.	.	.	.	.	.
2C	Ky-	2E	.	.	.	.	.	.	.	1r	.
[2D	-ri-	[2F	-ri-	.	.	.	.	.	.	.	.
=17	=17	=17	=17	=17	=17	=17	=17	=17	=17	=17	=17
2D]	.	2F]	.	0r	.	[0F	-em,	0r	.	0r	.
4C	.	4E	.	.	.	.	.	.	.	.	.
4BB-	.	4D	.	.	.	.	.	.	.	.	.
2AA	-e	2C	-e	.	.	.	.	.	.	.	.
[2BB-	e-	[2D	e-	.	.	.	.	.	.	.	.
=18	=18	=18	=18	=18	=18	=18	=18	=18	=18	=18	=18
2BB-]	.	2D]	.	0r	.	0F]	.	0r	.	0r	.
4AA	.	4C	.	.	.	.	.	.	.	.	.
4GG	.	4BB-	.	.	.	.	.	.	.	.	.
1AA	-lei-	1C	-lei-	.	.	.	.	.	.	.	.
=19	=19	=19	=19	=19	=19	=19	=19	=19	=19	=19	=19
[0GG	-son,	2D	-son,	0G	-Pre-	1.B-	Ky-	0r	.	1.g	Ky-
.	.	1G	e-	.	.	.	.	.	.	.	.
.	.	4F	.	.	.	2c	-ri-	.	.	2a	.
.	.	4E	.	.	.	.	.	.	.	.	.
=20	=20	=20	=20	=20	=20	=20	=20	=20	=20	=20	=20
1GG]	.	1D	.	0G	-ter	1d	.	0r	.	1b-	.
1r	.	2.C	-lei-	.	.	1e-i	.	.	.	1cc	.
.	.	4BB-	.	.	.	.	.	.	.	.	.
=21	=21	=21	=21	=21	=21	=21	=21	=21	=21	=21	=21
2r	.	[0GG	-son,	0G	re-	[0d	-e	1.G	Ky-	2b-	-ri-
1G	e-	.	.	.	.	.	.	.	.	2g	-e
.	.	.	.	.	.	.	.	.	.	2b-	e-
4F	.	.	.	.	.	.	.	2A	.	2cc	.
4E	.	.	.	.	.	.	.	.	.	.	.
=22	=22	=22	=22	=22	=22	=22	=22	=22	=22	=22	=22
1D	.	1GG]	.	0G	-rum	1d]	.	1B-	.	1dd	.
2.C	-lei-	1r	.	.	.	1r	.	1c	.	1ee-i	.
4BB-	.	.	.	.	.	.	.	.	.	.	.
=23	=23	=23	=23	=23	=23	=23	=23	=23	=23	=23	=23
0GG	-son,	1.D	Ky-	0G	se-	2r	.	2B-	-ri-	2.dd	-lei-
.	.	.	.	.	.	2B-	e-	2G	-e	.	.
.	.	.	.	.	.	.	.	.	.	4cc	.
.	.	.	.	.	.	2.d	-lei-	2.B-	e-	1b-	.
.	.	[2D	-ri-	.	.	.	.	.	.	.	.
.	.	.	.	.	.	4e	.	4c	.	.	.
=24	=24	=24	=24	=24	=24	=24	=24	=24	=24	=24	=24
0r	.	2D]	.	0A	-ri-	2f	.	1d	-lei-	2a	-son,
.	.	4C	.	.	.	4e	.	.	.	1dd	Ky-
.	.	4BB-	.	.	.	4d	.	.	.	.	.
.	.	1AA	-e	.	.	1e	.	1r	.	.	.
.	.	.	.	.	.	.	.	.	.	2cc#i	-ri-
=25	=25	=25	=25	=25	=25	=25	=25	=25	=25	=25	=25
1.BB-	Ky-	2r	.	[0F	-em,	1d	.	[0f	-son,	1.dd	-e
.	.	2D	e-	.	.	.	.	.	.	.	.
.	.	2D	-lei-	.	.	1B-	.	.	.	.	.
4AA	.	[2F	.	.	.	.	.	.	.	4cc	.
4GG	.	.	.	.	.	.	.	.	.	4b-	.
=26	=26	=26	=26	=26	=26	=26	=26	=26	=26	=26	=26
0FF	-ri-	2F]	.	0F_	.	0c	.	0f]	.	2a	.
.	.	4E	.	.	.	.	.	.	.	1b-	e-
.	.	4D	.	.	.	.	.	.	.	.	.
.	.	1C	-son,	.	.	.	.	.	.	.	.
.	.	.	.	.	.	.	.	.	.	2a	-lei-
=27	=27	=27	=27	=27	=27	=27	=27	=27	=27	=27	=27
0BB-	.	2r	.	0F]	.	1B-	-son,	[0d	.	[0b-	.
.	.	1B-	Ky-	.	.	.	.	.	.	.	.
.	.	.	.	.	.	1r	.	.	.	.	.
.	.	4A	.	.	.	.	.	.	.	.	.
.	.	4G	.	.	.	.	.	.	.	.	.
=28	=28	=28	=28	=28	=28	=28	=28	=28	=28	=28	=28
1.BB-	-e	2F	.	0r	.	1.B-	e-	0d]	.	0b-]	.
.	.	1G	-ri-	.	.	.	.	.	.	.	.
2BB-	e-	4F	.	.	.	4A	.	.	.	.	.
.	.	4E	.	.	.	4G	.	.	.	.	.
=29	=29	=29	=29	=29	=29	=29	=29	=29	=29	=29	=29
1BB-	-lei-	1D	-e	0r	.	2F	.	0r	.	0r	.
.	.	.	.	.	.	1G	.	.	.	.	.
1C	.	1E	e-	.	.	.	.	.	.	.	.
.	.	.	.	.	.	[2A	-lei-	.	.	.	.
=30	=30	=30	=30	=30	=30	=30	=30	=30	=30	=30	=30
2BB-	.	2F	-lei-	0r	.	4A]	.	0r	.	0r	.
.	.	.	.	.	.	4D	.	.	.	.	.
2GG	.	2BB-	.	.	.	1G	.	.	.	.	.
1AA	.	1C	.	.	.	.	.	.	.	.	.
.	.	.	.	.	.	2F#i	.	.	.	.	.
=31	=31	=31	=31	=31	=31	=31	=31	=31	=31	=31	=31
0GG	.	2D	-son,	1.B-	Ky-	0G	.	2r	.	1.b-	-e-
.	.	2.GG	Ky-	.	.	.	.	2B-	Ky-	.	.
.	.	.	.	.	.	.	.	2.d	.	.	.
.	.	4AA	.	.	.	.	.	.	.	.	.
.	.	4BB-	.	2B-	-ri-	.	.	.	.	4a	.
.	.	4C	.	.	.	.	.	4e	.	4g	.
=32	=32	=32	=32	=32	=32	=32	=32	=32	=32	=32	=32
0r	.	2D	-ri-	1B-	-e	0r	.	2f	.	2f	.
.	.	2E-	-e	.	.	.	.	1e-	.	1g	-lei-
.	.	2C	e-	1c	e-	.	.	.	.	.	.
.	.	2F	-lei-	.	.	.	.	2f	.	[2a	.
=33	=33	=33	=33	=33	=33	=33	=33	=33	=33	=33	=33
0r	.	2G	.	2B-	.	1r	.	2d	.	4a]	.
.	.	.	.	.	.	.	.	.	.	4d	.
.	.	2E-i	.	2G	.	.	.	2c	-ri-	1g	.
.	.	1D	.	1A	-lei-	1A	-e-	[1d	.	.	.
.	.	.	.	.	.	.	.	.	.	2f#i	.
=34	=34	=34	=34	=34	=34	=34	=34	=34	=34	=34	=34
0GG	-e-	2r	.	[0Gl	-son.	0B-	-lei-	1d]	.	[0gl	-son.
.	.	2D	-e-	.	.	.	.	.	.	.	.
.	.	2E-	-lei-	.	.	.	.	2r	.	.	.
.	.	2D	.	.	.	.	.	2d	-e-	.	.
=35	=35	=35	=35	=35	=35	=35	=35	=35	=35	=35	=35
0C	-lei-	2C	.	0G_	.	0c	.	0e-	-lei-	0g_	.
.	.	1E-i	.	.	.	.	.	.	.	.	.
.	.	2C	.	.	.	.	.	.	.	.	.
=36	=36	=36	=36	=36	=36	=36	=36	=36	=36	=36	=36
0GGl	-son.	0Dl	-son.	0G]	.	0B-l	-son.	0dl	-son.	0g]	.
!!LO:LB:i:g=z
=37||	=37||	=37||	=37||	=37||	=37||	=37||	=37||	=37||	=37||	=37||	=37||
*>B	*>B	*>B	*>B	*>B	*>B	*>B	*>B	*>B	*>B	*>B	*>B
*clefF4	*	*clefF4	*	*clefGv2	*	*clefGv2	*	*clefGv2	*	*clefG2	*
*k[b-]	*	*k[b-]	*	*k[b-]	*	*k[b-]	*	*k[b-]	*	*k[b-]	*
*M2/1	*	*M2/1	*	*M2/1	*	*M2/1	*	*M2/1	*	*M2/1	*
*met(C|)	*	*met(C|)	*	*met(C|)	*	*met(C|)	*	*met(C|)	*	*met(C|)	*
!!section: Christe
!!!OMD: Christe
0D	Chri-	0F	Vir-	0A	Chri-	0r	.	0d	Chri-	0r	.
=38	=38	=38	=38	=38	=38	=38	=38	=38	=38	=38	=38
0GG	-ste	0G	-go	1.B-	-ste	0r	.	1.d	-ste	0r	.
.	.	.	.	4A	.	.	.	2e	.	.	.
.	.	.	.	4G	.	.	.	.	.	.	.
=39	=39	=39	=39	=39	=39	=39	=39	=39	=39	=39	=39
1.D	e-	0A	ma-	1.F	.	0r	.	1f	.	0r	.
.	.	.	.	.	.	.	.	2d	e-	.	.
[2C	.	.	.	[2c	e-	.	.	[2e	-lei-	.	.
=40	=40	=40	=40	=40	=40	=40	=40	=40	=40	=40	=40
2C]	.	0G	-ter,	2c]	.	0r	.	4e]	.	0r	.
.	.	.	.	.	.	.	.	4c	.	.	.
2BB-	.	.	.	2d	.	.	.	1f	.	.	.
1C	.	.	.	1c	-lei-	.	.	.	.	.	.
.	.	.	.	.	.	.	.	2e	.	.	.
=41	=41	=41	=41	=41	=41	=41	=41	=41	=41	=41	=41
1.D	.	1r	.	2A	-son,	0r	.	2f	-son,	0r	.
.	.	.	.	2d	Chri-	.	.	2F	e-	.	.
.	.	1F	Vir-	2d	-ste	.	.	2A	-lei-	.	.
2BB-	.	.	.	[2d	e-	.	.	2B-	.	.	.
=42	=42	=42	=42	=42	=42	=42	=42	=42	=42	=42	=42
0E-i	-lei-	0G	-go	2d]	.	0r	.	2G	-son,	0r	.
.	.	.	.	4c	.	.	.	2g	Chri-	.	.
.	.	.	.	4B-	.	.	.	.	.	.	.
.	.	.	.	1c	-lei-	.	.	2g	-ste	.	.
.	.	.	.	.	.	.	.	[2g	e-	.	.
=43	=43	=43	=43	=43	=43	=43	=43	=43	=43	=43	=43
0D	-son,	0A	ma-	0d	-son,	0r	.	2g]	.	0r	.
.	.	.	.	.	.	.	.	4f	.	.	.
.	.	.	.	.	.	.	.	4e	.	.	.
.	.	.	.	.	.	.	.	1f	-lei-	.	.
=44	=44	=44	=44	=44	=44	=44	=44	=44	=44	=44	=44
1r	.	0G	-ter,	1r	.	0r	.	1.g	-son,	0r	.
1BB-	Chri-	.	.	1d	Chri-	.	.	.	.	.	.
.	.	.	.	.	.	.	.	2f	Chri-	.	.
=45	=45	=45	=45	=45	=45	=45	=45	=45	=45	=45	=45
0C	-ste	2r	.	0c	-ste	0r	.	2.e	-ste	0r	.
.	.	2G	Vir-	.	.	.	.	.	.	.	.
.	.	.	.	.	.	.	.	4d	.	.	.
.	.	2G	-go	.	.	.	.	1e	.	.	.
.	.	[2G	ma-	.	.	.	.	.	.	.	.
=46	=46	=46	=46	=46	=46	=46	=46	=46	=46	=46	=46
0D	e-	2G]	.	1A	e-	0r	.	1.d	e-	0r	.
.	.	4F	.	.	.	.	.	.	.	.	.
.	.	4E	.	.	.	.	.	.	.	.	.
.	.	1F	.	1B-	.	.	.	.	.	.	.
.	.	.	.	.	.	.	.	[2f	.	.	.
=47	=47	=47	=47	=47	=47	=47	=47	=47	=47	=47	=47
1.C	-lei-	1G	.	1c	.	0r	.	2f]	.	0r	.
.	.	.	.	.	.	.	.	4e	.	.	.
.	.	.	.	.	.	.	.	4d	.	.	.
.	.	2r	.	1G	-lei-	.	.	2e	.	.	.
2BB-	.	2G	-Chri-	.	.	.	.	[2d	.	.	.
=48	=48	=48	=48	=48	=48	=48	=48	=48	=48	=48	=48
0AA	-son,	2F	.	1A	-son,	0r	.	2d]	.	0r	.
.	.	4E	.	.	.	.	.	4c#i	.	.	.
.	.	4D	.	.	.	.	.	4Bni	.	.	.
.	.	1E	-ste	2r	.	.	.	1c#i	-lei-	.	.
.	.	.	.	[2A	Chri-	.	.	.	.	.	.
=49	=49	=49	=49	=49	=49	=49	=49	=49	=49	=49	=49
0r	.	1D	e-	2A]	.	0r	.	[0d	-son,	0r	.
.	.	.	.	2F	-ste	.	.	.	.	.	.
.	.	2D	-lei-	1B-	e-	.	.	.	.	.	.
.	.	[2G	.	.	.	.	.	.	.	.	.
=50	=50	=50	=50	=50	=50	=50	=50	=50	=50	=50	=50
1r	.	2G]	.	1A	-lei-	0r	.	0d]	.	0r	.
.	.	2F	.	.	.	.	.	.	.	.	.
1GG	Chri-	2G	.	[1G	-son,	.	.	.	.	.	.
.	.	[2B-	.	.	.	.	.	.	.	.	.
=51	=51	=51	=51	=51	=51	=51	=51	=51	=51	=51	=51
2GG	-ste	4B-]	.	0G]	.	0r	.	1r	.	0r	.
.	.	4A	.	.	.	.	.	.	.	.	.
1C	e-	4G	.	.	.	.	.	.	.	.	.
.	.	4F	.	.	.	.	.	.	.	.	.
.	.	2E	.	.	.	.	.	1G	Chri-	.	.
2BB-	.	2D	.	.	.	.	.	.	.	.	.
=52	=52	=52	=52	=52	=52	=52	=52	=52	=52	=52	=52
2C	.	2E	.	0r	.	0r	.	2G	-ste	0r	.
2E-i	.	1G	.	.	.	.	.	1c	e-	.	.
1D	.	.	.	.	.	.	.	.	.	.	.
.	.	2F	.	.	.	.	.	2B-	.	.	.
=53	=53	=53	=53	=53	=53	=53	=53	=53	=53	=53	=53
1C	-lei-	[0G	-son,	1G	Chri-	0r	.	2c	.	0r	.
.	.	.	.	.	.	.	.	2e-i	.	.	.
2BB-	.	.	.	2G	-ste	.	.	2d	-lei-	.	.
2C	.	.	.	[2c	e-	.	.	2c	.	.	.
=54	=54	=54	=54	=54	=54	=54	=54	=54	=54	=54	=54
1GG	.	1G]	.	2c]	.	0r	.	1d	-son,	0r	.
.	.	.	.	2B-	.	.	.	.	.	.	.
1r	.	[1C	Chri-	2c	.	.	.	[1c	Chri-	.	.
.	.	.	.	[2e-i	.	.	.	.	.	.	.
=55	=55	=55	=55	=55	=55	=55	=55	=55	=55	=55	=55
0r	.	2C]	.	2e-]	.	0r	.	2c]	.	0r	.
.	.	2D	.	1d	-lei-	.	.	2.B-	.	.	.
.	.	2BB-	.	.	.	.	.	.	.	.	.
.	.	.	.	.	.	.	.	4A	.	.	.
.	.	2C	.	4c	.	.	.	[2G	.	.	.
.	.	.	.	4B-	.	.	.	.	.	.	.
=56	=56	=56	=56	=56	=56	=56	=56	=56	=56	=56	=56
1r	.	1AA	.	1c	-son,	0r	.	2G]	.	0r	.
.	.	.	.	.	.	.	.	2F#i	.	.	.
2r	.	4GG	-e-	2B-	Chri-	.	.	[1G	.	.	.
.	.	4AA	.	.	.	.	.	.	.	.	.
2GG	-e-	4BB-	.	[2d	.	.	.	.	.	.	.
.	.	4C	.	.	.	.	.	.	.	.	.
=57	=57	=57	=57	=57	=57	=57	=57	=57	=57	=57	=57
2BB-	.	2D	.	2d]	.	0r	.	1G]	.	0r	.
2C	.	2E	.	4c	.	.	.	.	.	.	.
.	.	.	.	4B-	.	.	.	.	.	.	.
[1D	.	[1F	.	1A	.	.	.	2r	.	.	.
.	.	.	.	.	.	.	.	2d	-e-	.	.
=58	=58	=58	=58	=58	=58	=58	=58	=58	=58	=58	=58
2D]	.	2F]	.	1d	-e-	0r	.	1f	-lei-	0r	.
2BB-	.	2D	.	.	.	.	.	.	.	.	.
2C	.	2E	.	2c	.	.	.	2e	.	.	.
2D	.	2F	.	[2B-	-lei-	.	.	[2d	.	.	.
=59	=59	=59	=59	=59	=59	=59	=59	=59	=59	=59	=59
1E-	.	1G	-lei-	4B-]	.	0r	.	2d]	.	0r	.
.	.	.	.	4A	.	.	.	.	.	.	.
.	.	.	.	1G	.	.	.	2c	.	.	.
1D	.	1A	.	.	.	.	.	[1d	.	.	.
.	.	.	.	2F#i	.	.	.	.	.	.	.
=60	=60	=60	=60	=60	=60	=60	=60	=60	=60	=60	=60
0GG	-lei-	1.B-	.	0G	.	0r	.	0d]	.	0r	.
.	.	4A	.	.	.	.	.	.	.	.	.
.	.	4G	.	.	.	.	.	.	.	.	.
=61	=61	=61	=61	=61	=61	=61	=61	=61	=61	=61	=61
0Dl	-son.	0Fl	-son.	0Al	-son.	0r	.	0dl	-son.	0r	.
!!LO:LB:i:g=z
=62||	=62||	=62||	=62||	=62||	=62||	=62||	=62||	=62||	=62||	=62||	=62||
*>C	*>C	*>C	*>C	*>C	*>C	*>C	*>C	*>C	*>C	*>C	*>C
*clefF4	*	*clefF4	*	*clefGv2	*	*clefGv2	*	*clefGv2	*	*clefG2	*
*k[b-]	*	*k[b-]	*	*k[b-]	*	*k[b-]	*	*k[b-]	*	*k[b-]	*
*M2/1	*	*M2/1	*	*M2/1	*	*M2/1	*	*M2/1	*	*M2/1	*
*met(C|)	*	*met(C|)	*	*met(C|)	*	*met(C|)	*	*met(C|)	*	*met(C|)	*
!!section: Kyrie II
!!!OMD: Kyrie II
0r	.	0r	.	2.B-	Ky-	0r	.	1r	.	0b-	Vir-
.	.	.	.	4c	.	.	.	.	.	.	.
.	.	.	.	2d	-ri-	.	.	2.B-	Ky-	.	.
.	.	.	.	2G	-e	.	.	.	.	.	.
.	.	.	.	.	.	.	.	4c	.	.	.
=63	=63	=63	=63	=63	=63	=63	=63	=63	=63	=63	=63
0r	.	0r	.	2.B-	e-	0r	.	2d	-ri-	0b-	-tus
.	.	.	.	.	.	.	.	1G	-e	.	.
.	.	.	.	4c	.	.	.	.	.	.	.
.	.	.	.	2d	.	.	.	.	.	.	.
.	.	.	.	[2e-	-lei-	.	.	[2g	e-	.	.
=64	=64	=64	=64	=64	=64	=64	=64	=64	=64	=64	=64
0r	.	0r	.	2e-]	.	0r	.	2g]	.	0b-	san-
.	.	.	.	4d	.	.	.	4f	.	.	.
.	.	.	.	4c	.	.	.	4e	.	.	.
.	.	.	.	2d	.	.	.	2f	.	.	.
.	.	.	.	2B-	.	.	.	[2g	-lei-	.	.
=65	=65	=65	=65	=65	=65	=65	=65	=65	=65	=65	=65
0r	.	0r	.	1c	.	0r	.	2g]	.	1cc	-cti
.	.	.	.	.	.	.	.	2f	.	.	.
.	.	.	.	1B-	-son,	.	.	2g	-son,	[1b-	spi-
.	.	.	.	.	.	.	.	4G	e-	.	.
.	.	.	.	.	.	.	.	4A	.	.	.
=66	=66	=66	=66	=66	=66	=66	=66	=66	=66	=66	=66
0r	.	0r	.	2r	.	0r	.	4B-	.	2b-]	.
.	.	.	.	.	.	.	.	4c	.	.	.
.	.	.	.	2G	e-	.	.	4d	.	4a	.
.	.	.	.	.	.	.	.	4e	.	4g	.
.	.	.	.	2F	.	.	.	2f	.	2a	.
.	.	.	.	2G	.	.	.	[2d	-lei-	2b-	.
=67	=67	=67	=67	=67	=67	=67	=67	=67	=67	=67	=67
1r	.	0r	.	1E	-lei-	1r	.	2d]	.	1g	-ri-
.	.	.	.	.	.	.	.	2c#i	.	.	.
2.BB-	Ky-	.	.	[1D	-son,	[1B-	Vir-	[1d	-son,	1f	-tus,
4C	.	.	.	.	.	.	.	.	.	.	.
=68	=68	=68	=68	=68	=68	=68	=68	=68	=68	=68	=68
2D	-ri-	2.BB-	Ky-	1D]	.	1B-]	.	1d]	.	0r	.
2GG	-e	.	.	.	.	.	.	.	.	.	.
.	.	4C	.	.	.	.	.	.	.	.	.
2.BB-	e-	2D	-ri-	1r	.	[1B-	-tus	1r	.	.	.
.	.	[2GG	-e	.	.	.	.	.	.	.	.
4C	.	.	.	.	.	.	.	.	.	.	.
=69	=69	=69	=69	=69	=69	=69	=69	=69	=69	=69	=69
2D	-lei-	2GG]	.	0r	.	1B-]	.	0r	.	0r	.
1E-	.	1G	e-	.	.	.	.	.	.	.	.
.	.	.	.	.	.	[1B-	san-	.	.	.	.
4D	.	4F	.	.	.	.	.	.	.	.	.
4C	.	4E	.	.	.	.	.	.	.	.	.
=70	=70	=70	=70	=70	=70	=70	=70	=70	=70	=70	=70
2BB-	.	2F	.	1r	.	1B-]	.	0r	.	0r	.
2GG	.	1G	-lei-	.	.	.	.	.	.	.	.
1AA	.	.	.	2r	.	1c	-cti	.	.	.	.
.	.	2F	.	2A	Ky-	.	.	.	.	.	.
=71	=71	=71	=71	=71	=71	=71	=71	=71	=71	=71	=71
2GG	-son,	2G	.	2B-	-ri-	2B-	spi-	0r	.	1r	.
1G	Ky-	2E	.	2c	.	2G	.	.	.	.	.
.	.	1D	-son,	[1d	-e	1A	-ri-	.	.	1a	Ky-
2F	-ri-	.	.	.	.	.	.	.	.	.	.
=72	=72	=72	=72	=72	=72	=72	=72	=72	=72	=72	=72
2G	-e	0r	.	2d]	.	0G	-tus,	2r	.	1b-	-ri-
2.E-	e-	.	.	2.e-	e-	.	.	2.g	Ky-	.	.
.	.	.	.	.	.	.	.	.	.	1g	.
4F	.	.	.	4d	.	.	.	4f	.	.	.
2G	.	.	.	2B-	.	.	.	4d	.	.	.
.	.	.	.	.	.	.	.	4e	.	.	.
=73	=73	=73	=73	=73	=73	=73	=73	=73	=73	=73	=73
2F	.	0r	.	2c	.	1r	.	4f	.	0a	.
.	.	.	.	.	.	.	.	4c	.	.	.
2.D	-lei-	.	.	2.d	-lei-	.	.	2.f	.	.	.
.	.	.	.	.	.	1G	Ky-	.	.	.	.
4E	.	.	.	4c	.	.	.	4e	.	.	.
2F	.	.	.	2B-	-son,	.	.	4c	.	.	.
.	.	.	.	.	.	.	.	4d	.	.	.
=74	=74	=74	=74	=74	=74	=74	=74	=74	=74	=74	=74
2E-	.	0r	.	0r	.	1B-	-ri-	2e-	.	2g	-e
2BB-	.	.	.	.	.	.	.	1d	.	1b-	e-
1E-	.	.	.	.	.	1G	.	.	.	.	.
.	.	.	.	.	.	.	.	2c	-ri-	4a	.
.	.	.	.	.	.	.	.	.	.	4g	.
=75	=75	=75	=75	=75	=75	=75	=75	=75	=75	=75	=75
0D	-son,	1r	.	1r	.	0A	.	2d	-e	1f	.
.	.	.	.	.	.	.	.	2.f	e-	.	.
.	.	1F	Ky-	[1d	Ky-	.	.	.	.	1a	-lei-
.	.	.	.	.	.	.	.	4e	.	.	.
.	.	.	.	.	.	.	.	4d	.	.	.
.	.	.	.	.	.	.	.	4c	.	.	.
=76	=76	=76	=76	=76	=76	=76	=76	=76	=76	=76	=76
0r	.	2G	-ri-	2d]	.	0G	-e	4B-	.	1b-	.
.	.	.	.	.	.	.	.	4G	.	.	.
.	.	2.E-	-e	2.e-	-ri-	.	.	2.g	-lei-	.	.
.	.	.	.	.	.	.	.	.	.	1g	.
.	.	4F	.	4d	.	.	.	4f	.	.	.
.	.	2G	.	2B-	-e	.	.	4d	.	.	.
.	.	.	.	.	.	.	.	4e	.	.	.
=77	=77	=77	=77	=77	=77	=77	=77	=77	=77	=77	=77
0r	.	2F	e-	2c	e-	1r	.	4f	.	0a	.
.	.	.	.	.	.	.	.	4c	.	.	.
.	.	2.D	-lei-	2.d	-lei-	.	.	2.f	.	.	.
.	.	.	.	.	.	1A	e-	.	.	.	.
.	.	4E	.	4c	.	.	.	4e	.	.	.
.	.	2F	.	2A	-son,	.	.	4c	.	.	.
.	.	.	.	.	.	.	.	4d	.	.	.
=78	=78	=78	=78	=78	=78	=78	=78	=78	=78	=78	=78
0r	.	2E-	-son,	0r	.	1B-	-lei-	2e-	-son,	2g	-son,
.	.	2BB-	Ky-	.	.	.	.	1d	Ky-	1b-	Ky-
.	.	1E-i	-ri-	.	.	1G	.	.	.	.	.
.	.	.	.	.	.	.	.	2c	.	4a	.
.	.	.	.	.	.	.	.	.	.	4g	.
=79	=79	=79	=79	=79	=79	=79	=79	=79	=79	=79	=79
2r	.	2.D	-e,	2r	.	0A	.	2d	.	2f	.
1D	Ky-	.	.	1d	Ky-	.	.	1f	.	2.a	-ri-
.	.	4E	.	.	.	.	.	.	.	.	.
.	.	4F	.	.	.	.	.	.	.	.	.
.	.	4G	.	.	.	.	.	.	.	4b-	.
2AA	-ri-	2A	.	2c	-ri-	.	.	2en	-ri-	[2cc	-e
=80	=80	=80	=80	=80	=80	=80	=80	=80	=80	=80	=80
1C	-e	2E	Ky-	1c	-e	0G	.	1eni	-e	2cc]	.
.	.	2.G	-ri-	.	.	.	.	.	.	2g	e-
1GG	e-	.	.	2B-	e-	.	.	1d	e-	1b-	-lei-
.	.	4F	.	.	.	.	.	.	.	.	.
.	.	2D	-e	2d	-lei-	.	.	.	.	.	.
=81	=81	=81	=81	=81	=81	=81	=81	=81	=81	=81	=81
[0D	-lei-	2r	.	2d	-son,	0F	-son,	1.f	-lei-	0a	-son,
.	.	2D	e-	1d	Ky-	.	.	.	.	.	.
.	.	1A	-lei-	.	.	.	.	.	.	.	.
.	.	.	.	4c	.	.	.	4e	.	.	.
.	.	.	.	4B-	.	.	.	4d	.	.	.
=82	=82	=82	=82	=82	=82	=82	=82	=82	=82	=82	=82
1D]	.	1F	-son,	2A	-ri-	1r	.	2.f	.	1r	.
.	.	.	.	2B-	-e	.	.	.	.	.	.
.	.	.	.	.	.	.	.	4g	.	.	.
1C	.	2G	e	1c	e-	1G	e-	1e	.	1cc	e-
.	.	2E	.	.	.	.	.	.	.	.	.
=83	=83	=83	=83	=83	=83	=83	=83	=83	=83	=83	=83
1BB-	.	1F	lei-	2F	-lei-	1.B-	-lei-	[0d	-son,	1.dd	-lei-
.	.	.	.	2D	.	.	.	.	.	.	.
1GG	.	1G	.	1D	-son,	.	.	.	.	.	.
.	.	.	.	.	.	4A	.	.	.	[2b-	.
.	.	.	.	.	.	4G	.	.	.	.	.
=84	=84	=84	=84	=84	=84	=84	=84	=84	=84	=84	=84
0D	.	2.D	-son,	0r	.	2.B-	.	0d]	.	2b-]	.
.	.	.	.	.	.	.	.	.	.	4a	.
.	.	4E	.	.	.	4c	.	.	.	4g	.
.	.	1F	.	.	.	1A	.	.	.	4f#i	.
.	.	.	.	.	.	.	.	.	.	4g	.
.	.	.	.	.	.	.	.	.	.	4a	.
.	.	.	.	.	.	.	.	.	.	4f#i	.
=85	=85	=85	=85	=85	=85	=85	=85	=85	=85	=85	=85
*M3/1	*	*M3/1	*	*M3/1	*	*M3/1	*	*M3/1	*	*M3/1	*
*met(3)	*	*met(3)	*	*met(3)	*	*met(3)	*	*met(3)	*	*met(3)	*
0.GG	-son,	0D	Ky-	0d	Ky-	0.G	-son,	1.B-	Ky-	1.g	-son,
.	.	.	.	.	.	.	.	2c	.	2a	.
.	.	1G	-ri-	1B-	-ri-	.	.	2d	.	2b-	.
.	.	.	.	.	.	.	.	2e	.	2g	.
=86	=86	=86	=86	=86	=86	=86	=86	=86	=86	=86	=86
0.r	.	0F	-e	0c	-e	0.r	.	[0.f	-ri-	1a	Ky-
.	.	.	.	.	.	.	.	.	.	1cc	-ri-
.	.	1BB-	e-	1d	e-	.	.	.	.	1b-	-e
=87	=87	=87	=87	=87	=87	=87	=87	=87	=87	=87	=87
0.r	.	1F	-lei-	1c	-lei-	0.r	.	1f]	.	0a	e-
.	.	0G	.	0B-	.	.	.	0d	.	.	.
.	.	.	.	.	.	.	.	.	.	1g	-lei-
=88	=88	=88	=88	=88	=88	=88	=88	=88	=88	=88	=88
1r	.	0D	-son,	0A	-son,	0d	Ky-	1.f	-e	0a	-son,
1r	.	.	.	.	.	.	.	.	.	.	.
.	.	.	.	.	.	.	.	2e	.	.	.
1GG	Ky-	1G	Ky-	1r	.	1B-	-ri-	1d	.	1r	.
=89	=89	=89	=89	=89	=89	=89	=89	=89	=89	=89	=89
1AA	-ri-	1E	-ri-	0A	Ky-	0c	-e	1c	.	0a	Ky-
1FF	.	1F	.	.	.	.	.	1r	.	.	.
1BB-	.	1D	.	1B-	-ri	1d	e-	1r	.	1f	-ri-
=90	=90	=90	=90	=90	=90	=90	=90	=90	=90	=90	=90
1C	-e	1E	-e	1G	e	0c	-lei-	1r	.	0e	-e
1AA	.	1C	.	1A	.	.	.	1r	.	.	.
1GG	.	1G	e-	[1D	.	1B-	.	1d	e-	1r	.
=91	=91	=91	=91	=91	=91	=91	=91	=91	=91	=91	=91
0D	e-	1.F	-lei-	1D]	.	0A	-son,	0.f	-lei-	0a	e-
.	.	.	.	0d	e-	.	.	.	.	.	.
.	.	2E	.	.	.	.	.	.	.	.	.
1BB-	.	1D	.	.	.	1r	.	.	.	1b-	.
=92	=92	=92	=92	=92	=92	=92	=92	=92	=92	=92	=92
0C	-lei-	0E	.	1.c	-lei-	0.r	.	0e	.	1.g	-lei-
.	.	.	.	2A	.	.	.	.	.	2a	.
1D	.	1F	.	2B-	.	.	.	1d	.	1f	.
.	.	.	.	2A	.	.	.	.	.	.	.
=93	=93	=93	=93	=93	=93	=93	=93	=93	=93	=93	=93
1C	.	1E	.	1.A	.	0.r	.	1e	.	1cc	-son,
0BB-	.	0D	.	.	.	.	.	1f	.	1r	.
.	.	.	.	2F	.	.	.	.	.	.	.
.	.	.	.	1G	.	.	.	1d	.	1r	.
=94	=94	=94	=94	=94	=94	=94	=94	=94	=94	=94	=94
0.AA	-son	1E	-son,	0.A	-son,	0c	Ky-	1c	-son,	0.cc	Ky-
.	.	2.C	Ky-	.	.	.	.	0e	e-	.	.
.	.	4D	.	.	.	.	.	.	.	.	.
.	.	2.E	.	.	.	1A	-ri-	.	.	.	.
.	.	4F	.	.	.	.	.	.	.	.	.
=95	=95	=95	=95	=95	=95	=95	=95	=95	=95	=95	=95
0.r	.	0G	-ri-	0.r	.	0B-	-e	1d	-lei-	0b-	-ri-
.	.	.	.	.	.	.	.	1e	.	.	.
.	.	1F	-e	.	.	1c	e-	1f	.	1a	-e
=96	=96	=96	=96	=96	=96	=96	=96	=96	=96	=96	=96
0.r	.	1G	e-	1r	.	1B-	-lei-	1d	-son,	1.g	e-
.	.	1C	-lei-	1r	.	1c	.	1r	.	.	.
.	.	.	.	.	.	.	.	.	.	2e	.
.	.	1D	-son,	1F	Ky-	1A	.	1d	Ky-	1f	-lei-
=97	=97	=97	=97	=97	=97	=97	=97	=97	=97	=97	=97
0C	Ky-	1r	.	0.c	-ri-	0G	-son,	0e	-ri-	0.g	.
.	.	1r	.	.	.	.	.	.	.	.	.
1C	-ri-	1G	Ky-	.	.	1E	Ky-	1c	.	.	.
=98	=98	=98	=98	=98	=98	=98	=98	=98	=98	=98	=98
0BB-	-e	1.B-	-ri-	0d	-e	1F	-ri-	0f	.	0.r	.
.	.	.	.	.	.	1D	-e	.	.	.	.
.	.	2F	.	.	.	.	.	.	.	.	.
1C	e-	1A	-e e-	1c	e-	1E	e-	1e	.	.	.
=99	=99	=99	=99	=99	=99	=99	=99	=99	=99	=99	=99
1BB-	-lei-	1B-	-lei-	1d	-lei-	1.G	-lei-	1d	.	0.r	.
1C	.	1G	.	0c	.	.	.	1e	.	.	.
.	.	.	.	.	.	2E	.	.	.	.	.
1AA	.	1A	.	.	.	2F#i	.	1c	.	.	.
.	.	.	.	.	.	2E	.	.	.	.	.
=100	=100	=100	=100	=100	=100	=100	=100	=100	=100	=100	=100
*M2/1	*	*M2/1	*	*M2/1	*	*M2/1	*	*M2/1	*	*M2/1	*
*met(C|)	*	*met(C|)	*	*met(C|)	*	*met(C|)	*	*met(C|)	*	*met(C|)	*
0GG	.	[0D	.	[0B-	-e-	0G	.	[0d	-e-	[0dd	-e-
=101	=101	=101	=101	=101	=101	=101	=101	=101	=101	=101	=101
0BB-	-e-	1D]	.	0B-]	.	0F	-e-	0d]	.	0dd]	.
.	.	[1F	.	.	.	.	.	.	.	.	.
=102	=102	=102	=102	=102	=102	=102	=102	=102	=102	=102	=102
0FF	-lei-	1F]	.	0A	-lei-	[0c	-lei-	0f	.	[0cc	.
.	.	[1C	.	.	.	.	.	.	.	.	.
=103	=103	=103	=103	=103	=103	=103	=103	=103	=103	=103	=103
0C	.	1C]	.	[0Gl	-son.	0c]	.	0e	-lei-	1cc]	.
.	.	[1G	.	.	.	.	.	.	.	1g	-lei-
=104	=104	=104	=104	=104	=104	=104	=104	=104	=104	=104	=104
[0GGl	-son.	1G]	.	0G_	.	[0B-l	-son.	[0dl	-son.	[0b-l	-son.
.	.	1D	.	.	.	.	.	.	.	.	.
=105	=105	=105	=105	=105	=105	=105	=105	=105	=105	=105	=105
0GG]	.	0Dl	-e-	0G]	.	0B-]	.	0d]	.	0b-]	.
==	==	==	==	==	==	==	==	==	==	==	==
*-	*-	*-	*-	*-	*-	*-	*-	*-	*-	*-	*-
!!!RDF**kern: l=long note in original notation
!!!RDF**kern: i=editorial accidental
!!!ENC: Stephanie P. Schlagel 2016/05/22
!!!END: 2016/05/22/
!!!EED: Jesse Rodin
!!!EEV: 2016/05/30/
!!!ONB: Translated from MusicXML and edited on 2016/05/30/ by Craig Sapp
!!muse2ps: T^@{OPR}^u^@{ONM}{. }@{OTL}^C^@{COM}^i2I150v100,100,100,100,100,120Q16z18c65
